X:288
T:Land of Milk and Honey
C:Shena Tschofen
Z:robin.beech@mcgill.ca
R:reel
M:4/4
L:1/8
K:Emix
BEE2 d2Bd | cBAc BAGA | FDD2 c2Ac | BAGB egfe |
BEE2 d2Bd | cBAc BAGA | FcAF C3A | DCDF AdcA ::
Beeg f2d2- | dcBA BAGE | DCDF AdB2 | eBeg fdb2 |
Beeg f2d2- | dcBA GFEF | DCA,C B,3A, | G,B,EG F3A ||
